!!!COM: Mozart, Wolfgang Amadeus
!!!CDT: 1756/01/27/-1791/12/05/
!!!CNT: German
!!!OTL: Piano Sonata No. 3 in B-flat major
!!!SCT1: K<sup>1</sup> 281
!!!SCT2: K<sup>6</sup> 189f
!!!OMV: 1
!!!OMD: Allegro
!!!ODT: 1774///
**kern	**kern	**dynam
*staff2	*staff1	*staff1/2
*>[A,A,B]	*>[A,A,B]	*>[A,A,B]
*>norep[A,B]	*>norep[A,B]	*>norep[A,B]
*>A	*>A	*>A
*clefF4	*clefG2	*clefG2
*k[b-e-]	*k[b-e-]	*k[b-e-]
*B-:	*B-:	*B-:
*M2/4	*M2/4	*M2/4
*MM84	*MM84	*MM84
=1-	=1-	=1-
4B- 4d	(8.b-TL	f
.	32ccLL	.
.	32ddJJJ	.
4c 4e-	24b-LL	.
.	24a	.
.	24ccJ	.
.	24b-L	.
.	24a	.
.	24ee-JJ	.
=2	=2	=2
4d 4f	24ccLL	.
.	24b-	.
.	24ddJ	.
.	24ccL	.
.	24b-	.
.	24ffJJ	.
4r	8dd')	.
.	8r	.
=3	=3	=3
8E- 8e-L	8b-: 8ee-: 8gg:L	f
8BB- 8B-J	8b-: 8dd: 8ff:J	.
4r	(32ffLLL	.
.	32bb-	.
.	32aa	.
.	32bb-JJJ	.
.	32dddLLL	.
.	32bb-	.
.	32aa	.
.	32bb-JJJ)	.
=4	=4	=4
.	(<32dd/qq 23ff/qq	.
8FF 8FL>	8cc 8ee-L)	.
8BB- 8B-J	8b- 8ddJ	.
4r	4r	.
=5	=5	=5
4BB- 4D	(8.B-TL	p
.	32cLL	.
.	32dJJJ	.
4C/ 4E-/	24B-LL	.
.	24A	.
.	24cJ	.
.	24B-L	.
.	24A	.
.	24e-JJ	.
=6	=6	=6
4D 4F	24cLL	.
.	24B-	.
.	24dJ	.
.	24cL	.
.	24B-	.
.	24fJJ	.
4r	8d')	.
.	8r	.
=7	=7	=7
*^	*	*
4ryy	4E-: 4G: 4c:	(24gLL	f
.	.	24cc	.
.	.	24ee-J	.
.	.	24ccL	.
.	.	24ee-	.
.	.	24ggJJ)	.
(8dL	4F	(32ggLLL	.
.	.	32ff	.
.	.	32ee-	.
.	.	32ddJJJ)	.
8e-J)	.	(32ddLLL	.
.	.	32cc	.
.	.	32b-	.
.	.	32aJJJ	.
*v	*v	*	*
=8	=8	=8
16B- 16dLL	4b-)	.
16B- 16d	.	.
16B- 16d	.	.
16B- 16dJJ	.	.
16B- 16dLL	16r	.
16B- 16d	(>16b-LL	.
16B- 16d	16a	.
16B- 16dJJ	16a-JJ	.
=9	=9	=9
16B- 16e-LL	16gLL	.
16B- 16e-	32anL	.
.	32b-JJJ	.
16B- 16e-	32ccLLL	.
.	32dd	.
16B- 16e-JJ	32ee-	.
.	32ffJJJ	.
16B- 16e-LL	32ggLLL	.
.	32aa	.
16B- 16e-	32bb-	.
.	32aaJJJ	.
16B- 16e-	32bb-LLL	.
.	32aa	.
16B- 16e-JJ	32bb-	.
.	32ggJJJ	.
=10	=10	=10
16B- 16dLL	4ff)	.
16B- 16d	.	.
16B- 16d	.	.
16B- 16dJJ	.	.
16B- 16dLL	16r	.
16B- 16d	(>16b-LL	.
16B- 16d	16a	.
16B- 16dJJ	16a-JJ	.
=11	=11	=11
16B- 16e-LL	16gLL	.
16B- 16e-	32anL	.
.	32b-JJJ	.
16B- 16e-	32ccLLL	.
.	32dd	.
16B- 16e-JJ	32ee-	.
.	32ffJJJ	.
16B- 16e-LL	32ggLLL	.
.	32aa	.
16B- 16e-	32bb-	.
.	32aaJJJ	.
16B- 16e-	32bb-LLL	.
.	32aa	.
16B- 16e-JJ	32bb-	.
.	32ggJJJ	.
=12	=12	=12
16B- 16dLL	8ff)	.
16B-'	.	.
16d'	32r	.
.	(32bb-LLL	.
16f'JJ	32ccc	.
.	32bb-JJJ	.
8B-	32ddd'LLL)	.
.	32ccc'	.
.	32bb-'	.
.	32aa'JJJ	.
8r	32gg'LLL	.
.	32ff'	.
.	32ee-'	.
.	32dd'JJJ	.
=13	=13	=13
16r	8ee-	.
16F'LL	.	p
16A'	32r	.
.	(32aaLLL	.
16c'JJ	32bb-	.
.	32aaJJJ	.
8F	32ccc'LLL)	.
.	32bb-'	.
.	32aa'	.
.	32gg'JJJ	.
8r	32ff'LLL	.
.	32ee-'	.
.	32dd'	.
.	32cc'JJJ	.
=14	=14	=14
16r	8dd	f
16BBB-' 16BB-'LL	.	.
16DD' 16D'	32r	.
.	(32ffLLL	.
16FF' 16F'JJ	32gg	.
.	32ffJJJ	.
8DD 8D	32bb-'LLL)	.
.	32aa'	.
.	32gg'	.
.	32ff'JJJ	.
16r	32ee-'LLL	.
.	32dd'	.
*clefG2	*	*
(16d 16f	32cc'	.
.	32bn'JJJ	.
=15	=15	=15
4e-) 4g	(32ddLLL	.
.	32cc	.
.	32ee-	.
.	32ddJJJ	.
.	32ffLLL	.
.	32ee-	.
.	32gg	.
.	32ff#JJJ	.
8r	32ggLLL)	.
.	32ffn'	.
.	32ee-'	.
.	32dd'JJJ	.
16r	32cc'LLL	.
.	32b-X'	.
(16en 16g	32a'	.
.	32b-'JJJ	.
=16	=16	=16
8f)	32a'LLL	.
.	32b-'	.
.	32cc'	.
.	32dd'JJJ	.
8r	(32eenLLL	.
.	32ff	.
.	32ee	.
.	32ffJJJ)	.
*clefF4	*	*
32AA'LLL	8f'	.
32BB-'	.	.
32C'	.	.
32D'JJJ	.	.
(32EnLLL	8r	.
32F	.	.
32E	.	.
32FJJJ)	.	.
=17	=17	=17
8FF	8r	.
8r	16r	.
.	16ccc'	p
4r	16ccc'LL	.
.	16ccc'	.
.	16ccc'	.
.	16ccc'JJ	.
*clefG2	*	*
=18	=18	=18
(16fLL	(8.cccL	.
16cc	.	.
16a	.	.
16ccJJ	32bb-LL	.
.	32aaJJJ	.
16gLL	16ggLL)	.
16cc	16ff'	.
16b-	16een'	.
16ccJJ	16gg'JJ	.
=19	=19	=19
16aLL	8ff	.
16f	.	.
16ccJJ)	16r	.
16r	16ccc'	.
4r	16ccc'LL	.
.	16ccc'	.
.	16ccc'	.
.	16ccc'JJ	.
=20	=20	=20
(16fLL	(8.cccL	.
16cc	.	.
16a	.	.
16ccJJ	32bb-LL	.
.	32aaJJJ	.
16enLL	16ggLL)	.
16cc	16aa'	.
16g	16bb-'	.
16ccJJ	16gg'JJ	.
=21	=21	=21
16fLL	8aa	.
16a	.	.
16ccJJ)	16r	.
16r	16ccc'	.
4r	16ccc'LL	.
.	16ccc'	.
.	(16ccc	.
.	16ccc#JJ)	.
*clefF4	*	*
=22	=22	=22
4BB- 4B-	(32dddLLL	f
.	32dd	.
.	32cc#	.
.	32ddJJJ	.
.	32ee-XLLL	.
.	32dd	.
.	32een	.
.	32ddJJJ	.
4r	32ffLLL	.
.	32dd	.
.	32ff#	.
.	32ddJJJ	.
.	32ggLLL	.
.	32dd	.
.	32aa	.
.	32ddJJJ	.
*clefG2	*	*
=23	=23	=23
(32gLLL	4bb-)	.
32a	.	.
32b-	.	.
32aJJJ	.	.
32gLLL	.	.
32a	.	.
32f	.	.
32gJJJ	.	.
32enLLL	16.r	.
32f	.	.
32d	.	.
32eJJJ	32bb-	.
32cLLL	(16.bb-TTLL	.
32d	.	.
32B-	.	.
32cJJJ)	64aaLL	.
.	64bb-JJJJ	.
*clefF4	*	*
=24	=24	=24
4AA/ 4A/	32cccLLL	.
.	32cc	.
.	32bn	.
.	32ccJJJ	.
.	32dd-LLL	.
.	32cc	.
.	32ddn	.
.	32ccJJJ	.
4r	32ee-XLLL	.
.	32cc	.
.	32een	.
.	32ccJJJ	.
.	32ffLLL	.
.	32cc	.
.	32gg	.
.	32ccJJJ	.
*clefG2	*	*
=25	=25	=25
(32fLLL	4aa)	.
32g	.	.
32a	.	.
32gJJJ	.	.
32fLLL	.	.
32g	.	.
32en	.	.
32fJJJ	.	.
32dLLL	16.r	.
32e	.	.
32c	.	.
32dJJJ	32aa	.
32B-LLL	(16.aattLL	.
32c	.	.
32A	.	.
32B-JJJ)	64ggLL	.
.	64aaJJJJ	.
*clefF4	*	*
=26	=26	=26
4GG 4G	32bb-LLL	.
.	32b-	.
.	32a	.
.	32b-JJJ	.
.	32ccLLL	.
.	32b-	.
.	32dd-	.
.	32b-JJJ	.
4r	32ddnLLL	.
.	32b-	.
.	32een	.
.	32b-JJJ	.
.	32ffLLL	.
.	32b-	.
.	32ff#	.
.	32b-JJJ	.
*clefG2	*	*
=27	=27	=27
(32cLLL	8ggL)	.
32en	.	.
32g	.	.
32eJJJ	.	.
32cLLL	16r	.
32e	.	.
32g	16bb-'Jk	.
32eJJJ	.	.
32cLLL	(16aaLL	.
32g	.	.
32b-	16gg)	.
32gJJJ	.	.
32cLLL	(16ffn	.
32g	.	.
32b-	16eenJJ)	.
32gJJJ	.	.
=28	=28	=28
32cLLL	(16ggLL	.
32f	.	.
32a	16ffJJ)	.
32fJJJ	.	.
32cLLL	16r	.
32f	.	.
32a	16ccc'	.
32fJJJ	.	.
32cLLL	(16bb-LL	.
32e-X	.	.
32f#	16aa)	.
32e-JJJ	.	.
32cLLL	(16gg	.
32e-	.	.
32a	16ff#JJ)	.
32e-JJJ	.	.
=29	=29	=29
32B-LLL	(16.ggLL	.
32d	.	.
32g	.	.
32dJJJ	32aaJJk	.
32B-LLL	32cccLLL	.
32d	32bb-	.
32g	32aa	.
32dJJJ	32ggJJJ	.
32cLLL	8ffnL	.
32fn	.	.
32a	.	.
32fJJJ	.	.
32cLLL	8eenJ)	.
32g	.	.
32b-	.	.
32gJJJ)	.	.
*clefF4	*	*
=30	=30	=30
8F 8fL	32r	.
.	(32ffLLL	.
.	32een	.
.	32ffJJJ)	.
8C 8c	32r	.
.	(32ccLLL	.
.	32bn	.
.	32ccJJJ)	.
8AA 8A	32r	.
.	(32aLLL	.
.	32g#	.
.	32aJJJ)	.
8FF 8FJ	32r	.
.	(32fLLL	.
.	32en	.
.	32fJJJ)	.
*clefG2	*	*
=31	=31	=31
.	(>32gqLLL	.
.	32ccqJJJ	.
(32cLLL	8eenL)	p
32g	.	.
32b-	.	.
32gJJJ	.	.
32cLLL	16r	.
32g	.	.
32b-	16bb-'Jk	.
32gJJJ	.	.
32cLLL	(16aaLL	.
32g	.	.
32b-	16gg)	.
32gJJJ	.	.
32cLLL	(16ff	.
32g	.	.
32b-	16eenJJ)	.
32gJJJ	.	.
=32	=32	=32
32cLLL	(16ggLL	.
32f	.	.
32a	16ffJJ)	.
32fJJJ	.	.
32cLLL	16r	.
32f	.	.
32a	16ccc'	.
32fJJJ	.	.
32cLLL	(16bb-LL	.
32e-X	.	.
32f#	16aa)	.
32e-JJJ	.	.
32cLLL	(16gg	.
32e-	.	.
32a	16ff#JJ)	.
32e-JJJ	.	.
=33	=33	=33
32B-LLL	(16.ggLL	.
32d	.	.
32g	.	.
32dJJJ	32aaJJk)	.
32B-LLL	(32aaLLL	.
32d	32bb-	.
32g	32ccc	.
32dJJJ	32dddJJJ)	.
.	(32dddqq	.
32cLLL	8ffnL)	.
32fn	.	.
32a	.	.
32fJJJ	.	.
32cLLL	8ggTTJ	.
32en	.	.
32b-	.	.
32eJJJ	.	.
.	16ffqLL	.
.	16ggqJJ	.
=34	=34	=34
8f) 8a	16r	.
.	(32cccLLL	f
.	32aaJJJ	.
8r	32ffLLL	.
.	32cc	.
.	32a	.
.	32fJJJ)	.
*clefF4	*	*
16r	[4c [4e-X	.
16FF 16FLL	.	.
16AA 16A	.	.
16FF 16FJJ	.	.
=35	=35	=35
8BB- 8B-	(16c] 16e-LL]	.
.	16dJJ)	p
8GL	16r	.
.	16b- 16dd	.
8c	16r	.
.	16a 16cc	.
8CJ	16r	.
.	16B- 16en	.
=36	=36	=36
8F 8A	16r	.
.	(32cccLLL	f
.	32aaJJJ	.
8r	32ffLLL	.
.	32cc	.
.	32a	.
.	32fJJJ)	.
16r	[4c [4e-X	.
16FF 16FLL	.	.
16AA 16A	.	.
16FF 16FJJ	.	.
=37	=37	=37
8BB- 8B-	(16c] 16e-LL]	.
.	16dJJ)	p
8GL	16r	.
.	16b- 16dd	.
8c	16r	.
.	16a 16cc	.
8CJ	16r	.
.	16B- 16en	.
=38	=38	=38
(32FFLLL>	8A 8f	.
32F	.	.
32En	.	.
32FJJJ	.	.
32FFLLL>	16r	.
32F	.	.
32E	(16f 16a	.
32FJJJ	.	.
32FFLLL>	16en) 16gLL	.
32F	.	.
32E	16e' 16g'JJ	.
32FJJJ	.	.
32FFLLL>	16r	.
32F	.	.
32E	(16g 16b-	.
32FJJJ	.	.
=39	=39	=39
32FFLLL>	16f) 16aLL	.
32F	.	.
32En	16f' 16a'JJ	.
32FJJJ	.	.
32FFLLL>	16r	.
32F	.	.
32E	16ff (16aa	.
32FJJJ	.	.
32FFLLL>	16een 16ggLL)	.
32F	.	.
32E	16ee' 16gg'JJ	.
32FJJJ	.	.
32FFLLL>	16r	.
32F	.	.
32E	16ee 16gg 16bb-	.
32FJJJ)	.	.
=40	=40	=40
4.FF 4.F	4een 4gg ((4bb-	.
.	8ff 8aa))	.
8r	8r	.
=41:|!	=41:|!	=41:|!
*>B	*>B	*>B
*clefG2	*	*
.	(32bnqLLL	.
.	32ccq	.
.	32ddqJJJ	.
(32fLLL	[4cc)	.
32a	.	.
32g#	.	.
32aJJJ	.	.
32fLLL	.	.
32a	.	.
32g#	.	.
32aJJJ	.	.
32fLLL	16ccLL]	.
32a	.	.
32g#	(16ff	.
32aJJJ	.	.
32fLLL	16een	.
32a	.	.
32g#	16ddJJ)	.
32aJJJ	.	.
=42	=42	=42
32enLLL	(16ddMLL	.
32gn	.	.
32f#	16ccJJ)	.
32gJJJ	.	.
32eLLL	16r	.
32g	.	.
32f#	16cc'	.
32gJJJ	.	.
32eLLL	(16bnLL	.
32g	.	.
32f#	16cc	.
32gJJJ	.	.
32eLLL	16dd	.
32g	.	.
32f#	16ccJJ)	.
32gJJJ	.	.
=43	=43	=43
32dLLL	(16ccMLL	.
32fn	.	.
32en	16b-JJ)	.
32fJJJ	.	.
32dLLL	16r	.
32f	.	.
32e	16b-'	.
32fJJJ	.	.
32cLLL	(16b-MLL	.
32e	.	.
32d	16aJJ)	.
32eJJJ	.	.
32cLLL	16r	.
32e	.	.
32d	16a'	.
32eJJJ	.	.
=44	=44	=44
32B-LLL	(16amLL	.
32d	.	.
32c	16g)	.
32dJJJ	.	.
32B-LLL	(16b-	.
32d	.	.
32c	16gJJ)	.
32dJJJ	.	.
32ALLL	(16enLL	.
32c	.	.
32B-	16fJJ)	.
32cJJJ	.	.
32ALLL	8r	.
32c	.	.
32B-	.	.
32cJJJ)	.	.
*clefF4	*	*
=45	=45	=45
*^	*	*
2c	4A	(8.fTL	p
.	.	32gLL	.
.	.	32aJJJ	.
.	4B-	24fLL	.
.	.	24en	.
.	.	24gJ	.
.	.	24fL	.
.	.	24e	.
.	.	24b-JJ	.
=46	=46	=46	=46
4c	4A	24gLL	.
.	.	24f	.
.	.	24aJ	.
.	.	24gL	.
.	.	24f	.
.	.	24ccJJ	.
4r	4ryy	8a')	.
.	.	8r	.
=47	=47	=47	=47
4D: 4G:	4BB-:	(24gLL	f
.	.	24b-	.
.	.	24ddJ	.
.	.	24ggL	.
.	.	24bb-	.
.	.	24dddJJ)	.
(8AL	4C	(32dddLLL	.
.	.	32ccc	.
.	.	32bb-	.
.	.	32aaJJJ)	.
8B-J)	.	(32aaLLL	.
.	.	32gg	.
.	.	32ff	.
.	.	32eenJJJ	.
*v	*v	*	*
=48	=48	=48
(24FLL	4ff)	.
24G	.	.
24AJJ	.	.
24B-LL	.	.
24c	.	.
24dJJ	.	.
24e-XLL	4r	.
24d	.	.
24cJJ	.	.
24B-LL	.	.
24A	.	.
24GJJ	.	.
=49	=49	=49
4F#)	24r	.
.	(24aaLL	.
.	24bb-JJ	.
*	*Xtuplet	*
.	24cccLL	.
.	24ff#	.
.	24ggJJ	.
4r	24aaLL	.
.	24cc	.
.	24ddJJ	.
.	24ee-XLL	.
.	24a	.
.	24ccJJ	.
=50	=50	=50
*tuplet	*	*
(24GLL	4b-)	.
24B-	.	.
24cJJ	.	.
*Xtuplet	*	*
24dLL	.	.
24f	.	.
24gJJ	.	.
24a-LL	4r	.
24g	.	.
24fJJ	.	.
24e-LL	.	.
24d	.	.
24cJJ	.	.
=51	=51	=51
4Bn)	24r	.
.	(24ddLL	.
.	24ee-JJ	.
.	24ffLL	.
.	24bn	.
.	24ccJJ	.
4r	24ddLL	.
.	24f	.
.	24gJJ	.
.	24a-LL	.
.	24d	.
.	24fJJ	.
=52	=52	=52
(24CLL	4en)	.
24D	.	.
24EnJJ	.	.
24FLL	.	.
24G	.	.
24AJJ	.	.
24B-XLL	4r	.
24A	.	.
24GJJ	.	.
24FLL	.	.
24E	.	.
24DJJ	.	.
=53	=53	=53
8C#)	24r	.
.	24gg (24bb-LL	p
.	24ff# 24aaJJ	.
8r	24gg 24bb-LL	.
.	24ff# 24aa	.
.	24gg 24bb-JJ)	.
8c#	24r	.
.	(24g 24b-LL	.
.	24f# 24aJJ	.
8r	24g 24b-LL	.
.	24f# 24a	.
.	24g 24b-JJ	.
=54	=54	=54
8D' 8d'L	8f#') 8a'L	f
8Cn' 8cn'J	8f#': 8a': 8ee-X':J	.
4r	4r	.
=55	=55	=55
4BB- 4B-	(32ddLLL	f
.	32gg	.
.	32ff#	.
.	32ggJJJ	.
.	32aaLLL	.
.	32gg	.
.	32ff#	.
.	32ggJJJ	.
8r	32bb-LLL	.
.	32gg	.
.	32ff#	.
.	32ggJJJ	.
8C 8c	32ee-LLL	.
.	32gg	.
.	32ff#	.
.	32ggJJJ	.
=56	=56	=56
4BB- 4B-	32ddLLL	.
.	32gg	.
.	32ff#	.
.	32ggJJJ	.
.	32aaLLL	.
.	32gg	.
.	32ff#	.
.	32ggJJJ	.
8r	32bb-LLL	.
.	32gg	.
.	32ff#	.
.	32ggJJJ	.
8E- 8e-	32ccLLL	.
.	32gg	.
.	32ff#	.
.	32ggJJJ	.
*clefG2	*	*
=57	=57	=57
(32dLLL	16b-LL	.
32g	.	.
32f#	16gg	.
32gJJJ	.	.
32dLLL	16bn	.
32g	.	.
32f#	16ffnJJ	.
32gJJJ	.	.
32cLLL	16ccLK	.
32g	.	.
32f#	8ee-	.
32gJJJ	.	.
32BnLLL	.	.
32g	.	.
32f#	16ddJk)	.
32gJJJ)	.	.
=58	=58	=58
(32cLLL	(8.ee-TTL	.
32g	.	.
32f#	.	.
32gJJJ	.	.
32cLLL	.	.
32a	.	.
32b-	32ddLL	.
32aJJJ	32ccJJJ)	.
32dLLL	8b-L	.
32g	.	.
32f#	.	.
32gJJJ	.	.
32dLLL	8attJ	.
32f#	.	.
32en	.	.
32f#JJJ	.	.
.	16gqLL	.
.	16aqJJ	.
=59	=59	=59
32GLLL	(16b-LL	.
32g	.	.
32f#	16gg	.
32gJJJ	.	.
32dLLL	16bn	.
32g	.	.
32f#	16ffnJJ)	.
32gJJJ	.	.
32cLLL	(16ccLK	.
32g	.	.
32f#	8ee-	.
32gJJJ	.	.
32BnLLL	.	.
32g	.	.
32f#	16ddJk)	.
32gJJJ	.	.
=60	=60	=60
32cLLL	(8.ee-TTL	.
32g	.	.
32f#	.	.
32gJJJ	.	.
32cLLL	.	.
32a	.	.
32b-X	32ddLL	.
32aJJJ	32ccJJJ)	.
32dLLL	8b-XL	.
32g	.	.
32f#X	.	.
32gJJJ	.	.
32dLLL	8attJ	.
32f#	.	.
32en	.	.
32f#JJJ)	.	.
.	16gqLL	.
.	16aqJJ	.
*clefF4	*	*
=61	=61	=61
16r	8gL	p
16G (16B-LK	.	.
8B- 8dJ)	16r	.
.	(>16gJk	.
16r	8b-L)	.
16G (16B-LK	.	.
8B- 8dJ)	16r	.
.	(16b-Jk	.
=62	=62	=62
16r	8ee-L)	.
16G (16B-LK	.	.
8B- 8e-J)	16r	.
.	(16ee-Jk	.
16r	8ggL)	.
16G (16B-LK	.	.
8B- 8e-J)	16r	.
.	(16ggJk	.
=63	=63	=63
2F: 2A-: 2B-: 2d:	(32aa-LLL)	.
.	32bb-	.
.	32aa-	.
.	32ggJJJ	.
.	32ffLLL	.
.	32gg	.
.	32ff	.
.	32ee-JJJ	.
.	32ddLLL	.
.	32ee-	.
.	32dd	.
.	32ccJJJ	.
.	32b-LLL	.
.	32cc	.
.	32b-	.
.	32a-JJJ)	.
=64	=64	=64
8E-'L	32r	.
.	(32gLLL	p
.	32a-	.
.	32gJJJ)	.
8G'	32r	.
.	(32b-LLL	.
.	32cc	.
.	32b-JJJ)	.
8B-'	32r	.
.	(32ee-LLL	.
.	32ff	.
.	32ee-JJJ)	.
8e-'J	32r	.
.	(32ggLLL	.
.	32aa-	.
.	32ggJJJ)	.
=65	=65	=65
2F: 2A-: 2B-: 2d:	(32aa-LLL	.
.	32bb-	.
.	32aa-	.
.	32ggJJJ	.
.	32ffLLL	.
.	32gg	.
.	32ff	.
.	32ee-JJJ	.
.	32ddLLL	.
.	32ee-	.
.	32dd	.
.	32ccJJJ	.
.	32b-LLL	.
.	32cc	.
.	32b-	.
.	32a-JJJ	.
=66	=66	=66
8E- 8G 8B- 8e-	32gLLL	p
.	32an	.
.	32b-	.
.	32aJJJ	.
8r	32b-LLL	.
.	32bn	.
.	32cc	.
.	32bJJJ	.
4r	32ccLLL	.
.	32dd	.
.	32ee-	.
.	32ddJJJ)	.
.	(32ee-LLL	.
.	32ff#	.
.	32gg	.
.	32ff#JJJ	.
=67	=67	=67
4r	32ggLLL	.
.	32aa	.
.	32bb-X	.
.	32aaJJJ	.
.	32bb-LLL	.
.	32aa	.
.	32bb-	.
.	32aaJJJ	.
8r	8bb-')	.
8GG 8G	8g: 8b-: 8cc: 8een:	f
=68	=68	=68
8FF 8F	8an: 8cc: 8ff:	.
*clefG2	*	*
*	*tuplet	*
16r	16r	.
16b- 16cc	(48bb-LLL	p
.	48gg	.
.	48eenJJJ	.
8a 8cc	8ff)	.
16r	16r	.
16b- 16cc	(48bb-LLL	.
.	48gg	.
.	48eeJJJ	.
=69	=69	=69
8a 8cc	8ff)	.
8r	16r	.
.	(32ff#LLL	.
.	32ggJJJ	<
4r	32eenLLL	(
.	32ffn	(
.	32dd	(
.	32ee-JJJ	(
.	32cc#LLL	(
.	32dd	(
.	32bn	(
.	32ccnJJJ)	[
*clefF4	*	*
=70	=70	=70
4B- 4d	(8.b-XTL	f
.	32ccLL	.
.	32ddJJJ	.
4c 4e-	24b-LL	.
.	24a	.
.	24ccJ	.
.	24b-L	.
.	24a	.
.	24ee-JJ	.
=71	=71	=71
4d 4f	24ccLL	.
.	24b-	.
.	24ddJ	.
.	24ccL	.
.	24b-	.
.	24ffJJ	.
4r	8dd')	.
.	8r	.
=72	=72	=72
8E- 8e-L	8b-: 8ee-: 8gg:L	f
8BB- 8B-J	8b-: 8dd: 8ff:J	.
4r	(32ffLLL	.
.	32bb-	.
.	32aa	.
.	32bb-JJJ	.
.	32dddLLL	.
.	32bb-	.
.	32aa	.
.	32bb-JJJ)	.
=73	=73	=73
.	(<16dd/qq 16ff/qq	.
8FF 8FL	8cc) 8ee-L	.
8BB- 8B-J	8b- 8ddJ	.
4r	4r	.
=74	=74	=74
4BB- 4D	(8.B-TL	p
.	32cLL	.
.	32dJJJ	.
4C 4E-	24B-LL	.
.	24A	.
.	24cJ	.
.	24B-L	.
.	24A	.
.	24e-JJ	.
=75	=75	=75
4D 4F	24cLL	.
.	24B-	.
.	24dJ	.
.	24cL	.
.	24B-	.
.	24fJJ	.
4r	8d')	.
.	8r	.
=76	=76	=76
*^	*	*
4ryy	4E-: 4G: 4c:	(24gLL	f
.	.	24cc	.
.	.	24ee-J	.
.	.	24ccL	.
.	.	24ee-	.
.	.	24ggJJ)	.
(8dL	4F	(32ggLLL	.
.	.	32ff	.
.	.	32ee-	.
.	.	32ddJJJ	.
8e-J)	.	(32ddLLL)	.
.	.	32cc	.
.	.	32b-	.
.	.	32aJJJ	.
*v	*v	*	*
=77	=77	=77
16B- 16dLL	4b-)	.
16B- 16d	.	.
16B- 16d	.	.
16B- 16dJJ	.	.
16B- 16dLL	16r	.
16B- 16d	(16b-LL	.
16B- 16d	16a	.
16B- 16dJJ	16a-JJ	.
=78	=78	=78
16B- 16e-LL	16gLL	.
16B- 16e-	32anL	.
.	32b-JJJ	.
16B- 16e-	32ccLLL	.
.	32dd	.
16B- 16e-JJ	32ee-	.
.	32ffJJJ	.
16B- 16e-LL	32ggLLL	.
.	32aa	.
16B- 16e-	32bb-	.
.	32aaJJJ	.
16B- 16e-	32bb-LLL	.
.	32aa	.
16B- 16e-JJ	32bb-	.
.	32ggJJJ	.
=79	=79	=79
16B- 16dLL	4ff)	.
16B- 16d	.	.
16B- 16d	.	.
16B- 16dJJ	.	.
16B- 16dLL	16r	.
16B- 16d	(>16b-LL	.
16B- 16d	16a	.
16B- 16dJJ	16a-JJ	.
=80	=80	=80
16B- 16e-LL	16gLL	.
16B- 16e-	32anL	.
.	32b-JJJ	.
16B- 16e-	32ccLLL	.
.	32dd	.
16B- 16e-JJ	32ee-	.
.	32ffJJJ	.
16B- 16e-LL	32ggLLL	.
.	32aa	.
16B- 16e-	32bb-	.
.	32aaJJJ	.
16B- 16e-	32bb-LLL	.
.	32aa	.
16B- 16e-JJ	32bb-	.
.	32ggJJJ	.
=81	=81	=81
16B- 16dLL	8ff)	.
16B-'	.	.
16d'	32r	.
.	(32bb-LLL	.
16f'JJ	32ccc	.
.	32bb-JJJ	.
8B-	32ddd'LLL)	.
.	32ccc'	.
.	32bb-'	.
.	32aa'JJJ	.
8r	32gg'LLL	.
.	32ff'	.
.	32ee-'	.
.	32dd'JJJ	.
=82	=82	=82
16r	8ee-	p
16F'LL	.	.
16A'	32r	.
.	(32aaLLL	.
16c'JJ	32bb-	.
.	32aaJJJ	.
8F	32ccc'LLL)	.
.	32bb-'	.
.	32aa'	.
.	32gg'JJJ	.
8r	32ff'LLL	.
.	32ee-'	.
.	32dd'	.
.	32cc'JJJ	.
=83	=83	=83
16r	8dd	f
16BBB-' 16BB-'LL	.	.
16DD' 16D'	32r	.
.	(32ffLLL	.
16FF' 16F'JJ	32gg	.
.	32ffJJJ	.
8DD 8D	32bb-'LLL)	.
.	32aa'	.
.	32gg'	.
.	32ff'JJJ	.
16r	32ee-'LLL	.
.	32dd'	.
*clefG2	*	*
(16d 16f	32cc'	.
.	32bn'JJJ	.
=84	=84	=84
4e-) 4g	(32ddLLL	.
.	32cc	.
.	32ee-	.
.	32ddJJJ	.
.	32ffLLL	.
.	32ee-	.
.	32gg	.
.	32ff#JJJ	.
8r	32ggLLL)	.
.	32ffn'	.
.	32ee-'	.
.	32dd'JJJ	.
16r	32cc'LLL	.
.	32b-X'	.
(16en 16g	32a'	.
.	32b-'JJJ	.
=85	=85	=85
8f)	32a'LLL	.
.	32b-'	.
.	32cc'	.
.	32dd'JJJ	.
8r	(32eenLLL	.
.	32ff	.
.	32ee	.
.	32ffJJJ)	.
*clefF4	*	*
32AA'LLL	8f'	.
32BB-'	.	.
32C'	.	.
32D'JJJ	.	.
(32EnLLL	8r	.
32F	.	.
32E	.	.
32FJJJ)	.	.
=86	=86	=86
8FF'	8r	.
8r	16r	.
.	16ff'	p
4r	16ff'LL	.
.	16ff'	.
.	16ff'	.
.	16ff'JJ	.
*clefG2	*	*
=87	=87	=87
(16B-LL	(8.ffL	.
16f	.	.
16d	.	.
16fJJ	32ee-XLL	.
.	32ddJJJ	.
16cLL	16ccLL)	.
16f	16b-'	.
16e-	16a'	.
16fJJ	16cc'JJ	.
=88	=88	=88
16dLL	8b-	.
16f	.	.
16b-JJ)	16r	.
16r	16ff'	.
4r	16ff'LL	.
.	16ff'	.
.	16ff'	.
.	16ff'JJ	.
=89	=89	=89
(16B-LL	(8.ffL	.
16f	.	.
16d	.	.
16fJJ	32ee-LL	.
.	32ddJJJ	.
16ALL	16ccLL)	.
16f	16dd'	.
16c	16ee-'	.
16fJJ	16cc'JJ	.
=90	=90	=90
16B-LL	8dd	.
16d	.	.
16fJJ)	16r	.
16r	16ff'	.
4r	16ff'LL	.
.	16ff'	.
.	(16ff	.
.	16ff#JJ)	.
*clefF4	*	*
=91	=91	=91
4E- 4e-	(32ggLLL<	f
.	32g	.
.	32f#	.
.	32gJJJ	.
.	32a-LLL	.
.	32g	.
.	32an	.
.	32gJJJ	.
4r	32b-LLL	.
.	32g	.
.	32bn	.
.	32gJJJ	.
.	32ccLLL	.
.	32g	.
.	32dd	.
.	32gJJJ	.
=92	=92	=92
(32cLLL	4ee-)	.
32d	.	.
32e-	.	.
32dJJJ	.	.
32cLLL	.	.
32d	.	.
32B-	.	.
32cJJJ	.	.
32ALLL	16.r	.
32B-	.	.
32G	.	.
32AJJJ	32ee-	.
32FLLL	(16.ee-TTLL	.
32G	.	.
32E-	.	.
32FJJJ)	64ddLL	.
.	64ee-JJJJ	.
=93	=93	=93
4DD 4D	32ffLLL	.
.	32f	.
.	32en	.
.	32fJJJ	.
.	32gLLL	.
.	32f	.
.	32a-	.
.	32fJJJ	.
4r	32anLLL	.
.	32f	.
.	32b-	.
.	32fJJJ	.
.	32ccLLL	.
.	32f	.
.	32cc#	.
.	32fJJJ	.
=94	=94	=94
(32B-LLL	4dd)	.
32c	.	.
32d	.	.
32cJJJ	.	.
32B-LLL	.	.
32c	.	.
32A	.	.
32B-JJJ	.	.
32GLLL	16.r	.
32A	.	.
32F	.	.
32GJJJ	32ddd	.
32E-LLL	(16.dddttLL	.
32F	.	.
32D	.	.
32E-JJJ)	64cccLL	.
.	64dddJJJJ	.
=95	=95	=95
4CC 4C	32eee-LLL	.
.	32ee-	.
.	32dd	.
.	32ee-JJJ	.
.	32ffLLL	.
.	32ee-	.
.	32gg-	.
.	32ee-JJJ	.
4r	32ggnLLL	.
.	32ee-	.
.	32aa	.
.	32ee-JJJ	.
.	32bb-LLL	.
.	32ee-	.
.	32bbn	.
.	32ee-JJJ)	.
*clefG2	*	*
=96	=96	=96
(32fLLL	8cccL	.
32a	.	.
32cc	.	.
32aJJJ	.	.
32fLLL	16r	.
32a	.	.
32cc	16eee-'Jk	.
32aJJJ	.	.
32fLLL	(16dddLL	.
32cc	.	.
32ee-	16ccc)	.
32ccJJJ	.	.
32fLLL	(16bb-X	.
32cc	.	.
32ee-	16aaJJ)	.
32ccJJJ	.	.
=97	=97	=97
32fLLL	(16cccLL	.
32b-	.	.
32dd	16bb-JJ)	.
32b-JJJ	.	.
32fLLL	16r	.
32b-	.	.
32dd	16fff'	.
32b-JJJ	.	.
32fLLL	(16eee-LL	.
32a-	.	.
32bn	16ddd)	.
32a-JJJ	.	.
32fLLL	(16ccc	.
32a-	.	.
32dd	16bbnJJ)	.
32a-JJJ	.	.
=98	=98	=98
32e-LLL	(16.cccLL	.
32g	.	.
32cc	.	.
32gJJJ	32dddJJk	.
32e-LLL	32fffLLL	.
32g	32eee-	.
32cc	32ddd	.
32gJJJ	32cccJJJ	.
32fLLL	8bb-XL	.
32b-X	.	.
32dd	.	.
32b-JJJ	.	.
32fLLL>	8aaJ)	.
32cc	.	.
32ee-	.	.
32ccJJJ)	.	.
=99	=99	=99
8B- 8b-	32r	.
.	(32bb-LLL	.
.	32aa	.
.	32bb-JJJ)	.
*clefF4	*	*
8F 8fL	32r	.
.	(32ffLLL	.
.	32een	.
.	32ffJJJ)	.
8D 8d	32r	.
.	(32ddLLL	.
.	32cc#	.
.	32ddJJJ)	.
8BB- 8B-J	32r	.
.	(32b-LLL	.
.	32a	.
.	32b-JJJ)	.
=100	=100	=100
.	(>32e-XqLLL	.
.	32fqJJJ	.
(32FLLL	8aL)	p
32c	.	.
32e-	.	.
32cJJJ	.	.
32FLLL	16r	.
32c	.	.
32e-	16ee-'Jk	.
32cJJJ	.	.
32FLLL	(16ddLL	.
32c	.	.
32e-	16cc)	.
32cJJJ	.	.
32FLLL	(16b-	.
32c	.	.
32e-	16aJJ)	.
32cJJJ	.	.
=101	=101	=101
32FLLL	(16ccLL	.
32B-	.	.
32d	16b-JJ)	.
32B-JJJ	.	.
32FLLL	16r	.
32B-	.	.
32d	16ff'	.
32B-JJJ	.	.
32FLLL	(16ee-LL	.
32A-	.	.
32Bn	16dd)	.
32A-JJJ	.	.
32FLLL	(16cc	.
32A-	.	.
32d	16bnJJ)	.
32A-JJJ	.	.
=102	=102	=102
32E-LLL	(16.ccLL	.
32G	.	.
32c	.	.
32GJJJ	32ddJJk)	.
32E-LLL	(32ddLLL	.
32G	32ee-	.
32c	32ff	.
32GJJJ	32ggJJJ)	.
.	(32ggqq	.
32FLLL	8b-XL)	.
32B-X	.	.
32d	.	.
32B-JJJ	.	.
32FLLL	8ccTTJ	.
32An	.	.
32c	.	.
32AJJJ	.	.
.	16b-qLL	.
.	16ccqJJ	.
=103	=103	=103
8B- 8d)	16r	.
.	(32fffLLL	f
.	32dddJJJ	.
8r	32bb-LLL	.
.	32ff	.
.	32dd	.
.	32b-JJJ)	.
16r	[4f [4a-	.
16BB- 16B-LL	.	.
16D 16d	.	.
16BB- 16B-JJ	.	.
=104	=104	=104
8E- 8e-	(16f] 16a-LL]	.
.	16gJJ)	p
8cL	16r	.
.	16ee- 16gg	.
8f	16r	.
.	16dd 16ff	.
8FJ	16r	.
.	16e- 16an	.
=105	=105	=105
*^	*	*
4ryy	8B- 8d	16r	.
.	.	(32ffLLL	f
.	.	32ddJJJ	.
.	8r	32b-LLL	.
.	.	32f	.
.	.	32d	.
.	.	32B-JJJ)	.
[4F [4A-	16r	4ryy	.
.	16BBB- 16BB-LL	.	.
.	16DD 16D	.	.
.	16BBB- 16BB-JJ	.	.
=106	=106	=106	=106
16F] (16A-LL]	8EE- 8E-	8ryy	.
16GJJ)	.	.	.
8ryy	8CL	16ryy	.
.	.	16e- 16g	p
4ryy	8F	16r	.
.	.	16d 16f	.
.	8FFJ	16r	.
.	.	16e- 16an	.
*v	*v	*	*
=107	=107	=107
(32BB-LLL	8d 8b-	.
32B-	.	.
32A	.	.
32B-JJJ	.	.
32BB-LLL	16r	.
32B-	.	.
32A	16b- (16dd	.
32B-JJJ	.	.
32BB-LLL	16a 16ccLL)	.
32B-	.	.
32A	16a' 16cc'JJ	.
32B-JJJ	.	.
32BB-LLL	16r	.
32B-	.	.
32A	16cc (16ee-	.
32B-JJJ	.	.
=108	=108	=108
32BB-LLL	16b- 16ddLL)	.
32B-	.	.
32A	16b-' 16dd'JJ	.
32B-JJJ	.	.
32BB-LLL	16r	.
32B-	.	.
32A	16dd 16ff (16aa-	.
32B-JJJ	.	.
32BB-LLL	16ee- 16ggLL)	.
32B-	.	.
32A	16ee- 16ggJJ	.
32B-JJJ	.	.
32BB-LLL	16r	.
32B-	.	.
32A	16cc 16ee- 16aan	.
32B-JJJ)	.	.
=109	=109	=109
4.BB- 4.B-	4cc 4ee- (4aa	.
.	8dd 8bb-)	.
8r	8r	.
==	==	==
*-	*-	*-
!!!RDF**kern: > = above
!!!RDF**kern: < = below
!!!YOR: Alte Mozart-Ausgabe, Band 20, Breitkopf &amp; H&auml;rtel 1877-1883.
!!!YOY: 1878
!!!YEC: 2018 Craig Stuart Sapp
!!!YEM: Licence: (CC BY-NC-SA 4.0) https://creativecommons.org/licenses/by-nc-sa/4.0
!!!YER: 2018
!!!ENC: Craig Stuart Sapp
!!!END: 2009/10/02
!!!EED: Craig Stuart Sapp
!!!EEV: 2018/06/13
!!!EFL: 7/69
!!!AGN: piano sonata
!!!AFR: sonata-allegro
!!!title: @{OTL}, K 281 (189f), mvmt. @{OMV}
